www/static/img/overview/fab.svg

<svg fill="none" height="44" viewBox="0 0 160 44" width="160" xmlns="http://www.w3.org/2000/svg"><rect fill="#005a7a" height="44" rx="22" width="108"/><rect fill="#005a7a" height="44" rx="22" width="44" x="116"/><g fill="#fff"><path d="m65 15h-22c-.552 0-1 .448-1 1s.448 1 1 1h22c.552 0 1-.448 1-1s-.448-1-1-1zm-3 6h-16c-.552 0-1 .448-1 1s.448 1 1 1h16c.552 0 1-.448 1-1s-.448-1-1-1zm-3 6h-10c-.552 0-1 .448-1 1s.448 1 1 1h10c.552 0 1-.448 1-1s-.448-1-1-1z"/><path d="m141.998 21h-3l.004-8.9981c0-.5533-.45-1.0019-1.002-1.0019-.553 0-.998.4486-.998 1.0019l-.004 8.9981h-8.998c-.553 0-1 .4472-1 1.0005 0 .5522.447 1.0004 1 1.0004h8.998l.002 8.9986c0 .5523.447 1.0005 1 1.0005.552 0 1-.4482 1-1.0005l-.002-8.9986 9.002-.0009c.552 0 1-.4482 1-1.0005 0-.5532-.448-1.0004-1-1.0004"/></g></svg>

<svg width="160" height="44" viewBox="0 0 160 44" fill="none" xmlns="http://www.w3.org/2000/svg">
<rect width="108" height="44" rx="22" fill="#005A7A"/>
<rect x="116" width="44" height="44" rx="22" fill="#005A7A"/>
<path d="M65 15H43C42.448 15 42 15.448 42 16C42 16.552 42.448 17 43 17H65C65.552 17 66 16.552 66 16C66 15.448 65.552 15 65 15ZM62 21H46C45.448 21 45 21.448 45 22C45 22.552 45.448 23 46 23H62C62.552 23 63 22.552 63 22C63 21.448 62.552 21 62 21ZM59 27H49C48.448 27 48 27.448 48 28C48 28.552 48.448 29 49 29H59C59.552 29 60 28.552 60 28C60 27.448 59.552 27 59 27Z" fill="white"/>
<path d="M141.998 21H138.998L139.002 12.0019C139.002 11.4486 138.552 11 138 11C137.447 11 137.002 11.4486 137.002 12.0019L136.998 21H128C127.447 21 127 21.4472 127 22.0005C127 22.5527 127.447 23.0009 128 23.0009H136.998L137 31.9995C137 32.5518 137.447 33 138 33C138.552 33 139 32.5518 139 31.9995L138.998 23.0009L148 23C148.552 23 149 22.5518 149 21.9995C149 21.4463 148.552 20.9991 148 20.9991" fill="white"/>
</svg>
